X: 28246
T: Mrs. Hamilton Of Pencaitland
R: reel
M: 4/4
K: Gmajor
|:dc|Bcdg egdB|ce e/d/c/B/ BA Ad/c/|
Bcdg egdB|cd/e/ dB G2 G2:|
|:dc|Bd GG/d/ Bd e/d/c/B/|ce e/d/c/B/ BA Ad/c/|
[1 Bd GG/d/ Bd e/d/c/B/|cd/e/ dB G2 G2:|
[2 Bcdg egdB|cd/e/ dB G2 G2||
|:dc|B/G/B/d/ e/d/c/B/ g/f/g/d/ e/d/c/B/|ce e/d/c/B/ BA Ad/c/|
[1 B/G/B/d/ e/d/c/B/ g/f/g/d/ e/d/c/B/|cd/e/ dB G2 G2:|
[2 Bcdg egdB|cd/e/ dB G2 G2||

